src/assets/duotone/Lock.svg

<svg width="24" height="24" viewBox="0 0 24 24"  xmlns="http://www.w3.org/2000/svg">
<path d="M18.75 8V10.1C18.31 10.04 17.81 10.01 17.25 10V8C17.25 4.85 16.36 2.75 12 2.75C7.64 2.75 6.75 4.85 6.75 8V10C6.19 10.01 5.69 10.04 5.25 10.1V8C5.25 5.1 5.95 1.25 12 1.25C18.05 1.25 18.75 5.1 18.75 8Z" />
<path opacity="0.4" d="M22 15V17C22 21 21 22 17 22H7C3 22 2 21 2 17V15C2 11.66 2.7 10.41 5.25 10.1C5.69 10.04 6.19 10.01 6.75 10H17.25C17.81 10.01 18.31 10.04 18.75 10.1C21.3 10.41 22 11.66 22 15Z" />
<path d="M8 16.9999C7.87 16.9999 7.74 16.9699 7.62 16.9199C7.49 16.8699 7.39001 16.7999 7.29001 16.7099C7.11001 16.5199 7 16.2599 7 15.9999C7 15.8699 7.02999 15.7399 7.07999 15.6199C7.12999 15.4999 7.20001 15.3899 7.29001 15.2899C7.39001 15.1999 7.49 15.1299 7.62 15.0799C7.99 14.9199 8.42999 15.0099 8.70999 15.2899C8.79999 15.3899 8.87001 15.4999 8.92001 15.6199C8.97001 15.7399 9 15.8699 9 15.9999C9 16.2599 8.88999 16.5199 8.70999 16.7099C8.51999 16.8899 8.26 16.9999 8 16.9999Z" />
<path d="M12 17.0002C11.73 17.0002 11.48 16.8902 11.29 16.7102C11.2 16.6102 11.13 16.5002 11.08 16.3802C11.03 16.2602 11 16.1302 11 16.0002C11 15.7302 11.11 15.4802 11.29 15.2902C11.66 14.9202 12.33 14.9202 12.71 15.2902C12.89 15.4802 13 15.7302 13 16.0002C13 16.1302 12.97 16.2602 12.92 16.3802C12.87 16.5002 12.8 16.6102 12.71 16.7102C12.52 16.8902 12.26 17.0002 12 17.0002Z" />
<path d="M16 17.0002C15.74 17.0002 15.48 16.8902 15.29 16.7102C15.11 16.5202 15 16.2702 15 16.0002C15 15.7302 15.11 15.4802 15.29 15.2902C15.67 14.9202 16.34 14.9202 16.71 15.2902C16.75 15.3402 16.79 15.3902 16.83 15.4502C16.87 15.5002 16.9 15.5602 16.92 15.6202C16.95 15.6802 16.97 15.7402 16.98 15.8002C16.99 15.8702 17 15.9402 17 16.0002C17 16.2602 16.89 16.5202 16.71 16.7102C16.52 16.8902 16.26 17.0002 16 17.0002Z" />
</svg>

<?xml version="1.0" encoding="UTF-8"?>
<svg width="24" height="24" viewBox="0 0 24 24" xmlns="http://www.w3.org/2000/svg">
 <path d="m18.75 8v2.1c-0.44-0.06-0.94-0.09-1.5-0.1v-2c0-3.15-0.89-5.25-5.25-5.25s-5.25 2.1-5.25 5.25v2c-0.56 0.01-1.06 0.04-1.5 0.1v-2.1c0-2.9 0.7-6.75 6.75-6.75s6.75 3.85 6.75 6.75z"/>
 <path d="m22 15v2c0 4-1 5-5 5h-10c-4 0-5-1-5-5v-2c0-3.34 0.7-4.59 3.25-4.9 0.44-0.06 0.94-0.09 1.5-0.1h10.5c0.56 0.01 1.06 0.04 1.5 0.1 2.55 0.31 3.25 1.56 3.25 4.9z" opacity=".4"/>
 <path d="m8 17c-0.13 0-0.26-0.03-0.38-0.08-0.13-0.05-0.22999-0.12-0.32999-0.21-0.18-0.19-0.29001-0.45-0.29001-0.71 0-0.13 0.02999-0.26 0.07999-0.38s0.12002-0.23 0.21002-0.33c0.1-0.09 0.19999-0.16 0.32999-0.21 0.37-0.16 0.80999-0.07 1.09 0.21 0.09 0.1 0.16002 0.21 0.21002 0.33s0.07999 0.25 0.07999 0.38c0 0.26-0.11001 0.52-0.29001 0.71-0.19 0.18-0.44999 0.29-0.70999 0.29z"/>
 <path d="m12 17c-0.27 0-0.52-0.11-0.71-0.29-0.09-0.1-0.16-0.21-0.21-0.33s-0.08-0.25-0.08-0.38c0-0.27 0.11-0.52 0.29-0.71 0.37-0.37 1.04-0.37 1.42 0 0.18 0.19 0.29 0.44 0.29 0.71 0 0.13-0.03 0.26-0.08 0.38s-0.12 0.23-0.21 0.33c-0.19 0.18-0.45 0.29-0.71 0.29z"/>
 <path d="m16 17c-0.26 0-0.52-0.11-0.71-0.29-0.18-0.19-0.29-0.44-0.29-0.71s0.11-0.52 0.29-0.71c0.38-0.37 1.05-0.37 1.42 0 0.04 0.05 0.08 0.1 0.12 0.16 0.04 0.05 0.07 0.11 0.09 0.17 0.03 0.06 0.05 0.12 0.06 0.18 0.01 0.07 0.02 0.14 0.02 0.2 0 0.26-0.11 0.52-0.29 0.71-0.19 0.18-0.45 0.29-0.71 0.29z"/>
</svg>
